public/Images/blob-bg.svg

<svg fill="none" height="980" viewBox="0 0 1092 980" width="1092" xmlns="http://www.w3.org/2000/svg" xmlns:xlink="http://www.w3.org/1999/xlink"><linearGradient id="a" gradientUnits="userSpaceOnUse" x1="4.10205" x2="941.237" y1="958.359" y2="-119.3"><stop offset="0" stop-color="#134e4a"/><stop offset="1" stop-color="#10b981"/></linearGradient><clipPath id="b"><path d="m0 0h1092v980h-1092z"/></clipPath><g clip-path="url(#b)"><path d="m925.657 191.084c87.053 73.386 149.723 153.567 163.653 236.466s-22.63 168.516-73.12 258.21c-50.49 91.053-114.907 184.824-221.108 233.748s-254.186 51.642-367.351 8.154-191.51-134.541-268.114-229.671c-74.8629-95.13-147.9849-195.696-154.94892-308.493-6.964-112.797 50.48902-236.466 163.65392-307.134 113.165-69.309 282.042-84.25802 421.322-58.437 139.28 27.18 250.704 93.771 336.013 167.157z" fill="url(#a)"/></g></svg>

<svg width="1092" height="980" viewBox="0 0 1092 980" fill="none" xmlns="http://www.w3.org/2000/svg">
<g clip-path="url(#clip0_78_661)">
<path d="M925.657 191.084C1012.71 264.47 1075.38 344.651 1089.31 427.55C1103.24 510.449 1066.68 596.066 1016.19 685.76C965.7 776.813 901.283 870.584 795.082 919.508C688.881 968.432 540.896 971.15 427.731 927.662C314.566 884.174 236.221 793.121 159.617 697.991C84.7541 602.861 11.6321 502.295 4.66808 389.498C-2.29592 276.701 55.1571 153.032 168.322 82.364C281.487 13.055 450.364 -1.89402 589.644 23.927C728.924 51.107 840.348 117.698 925.657 191.084Z" fill="url(#paint0_linear_78_661)"/>
</g>
<defs>
<linearGradient id="paint0_linear_78_661" x1="4.10205" y1="958.359" x2="941.237" y2="-119.3" gradientUnits="userSpaceOnUse">
<stop stop-color="#134E4A"/>
<stop offset="1" stop-color="#10B981"/>
</linearGradient>
<clipPath id="clip0_78_661">
<rect width="1092" height="980" fill="white"/>
</clipPath>
</defs>
</svg>
